icons/utility-network-16.svg

<?xml version="1.0" encoding="UTF-8"?><svg id="icons" xmlns="http://www.w3.org/2000/svg" viewBox="0 0 16 16"><defs><style>.cls-1{fill:none;}.cls-1,.cls-2{stroke-width:0px;}</style></defs><path class="cls-2" d="M14.5,3c.82843,0,1.5-.67157,1.5-1.5s-.67157-1.5-1.5-1.5-1.5.67157-1.5,1.5c0,.3623.13361.69012.34747.9494l-1.54865,2.58069c-.09662-.01953-.19647-.03009-.29883-.03009-.65216,0-1.2016.41876-1.4082,1h-2.18359c-.2066-.58124-.75604-1-1.4082-1-.82843,0-1.5.67157-1.5,1.5,0,.10248.01056.20239.03015.29907l-2.58075,1.54846c-.13318-.10986-.28357-.19678-.4494-.25574V2.9082c.58124-.2066,1-.75604,1-1.4082,0-.82843-.67157-1.5-1.5-1.5S0,.67157,0,1.5c0,.65216.41876,1.2016,1,1.4082v5.18359c-.58124.2066-.991.75604-.991,1.4082s.40976,1.2016.991,1.4082v4.0918h1v-4.0918c.58124-.2066.991-.75604.991-1.4082,0-.10242-.00156-.20239-.02115-.29907l2.58075-1.54846c.13312.1098.28357.19678.4494.25574v5.18359c-.58124.2066-.991.75604-.991,1.4082,0,.82843.66257,1.5,1.491,1.5s1.491-.67157,1.491-1.5c0-.65216-.40976-1.2016-.991-1.4082v-5.18359c.42413-.15076.75745-.48407.9082-.9082h2.18359c.20355.57263.74036.98499,1.37994.99713l1.10858,3.32587c-.04803.0376-.0979.07324-.14099.11633-.27142.27142-.43033.64642-.43033,1.06067,0,.41418.15891.78918.43033,1.06067.27148.27142.64648.43933,1.06067.43933.41425,0,.78925-.16791,1.06067-.43933.27142-.27148.43033-.64648.43033-1.06067,0-.41425-.15891-.78925-.43033-1.06067-.26508-.26508-.62964-.42883-1.03235-.43646l-1.10858-3.32587c.35077-.27454.58026-.69702.58026-1.177,0-.36224-.13361-.69-.34735-.94922l1.54834-2.58093c.09662.01953.19659.03015.29901.03015ZM1,1.5v-.5h1v1h-1v-.5ZM2,9.5v.5h-1v-1h1v.5ZM7,14.5v.5h-1v-1h1v.5ZM7,6.5v.5h-1v-1h1v.5ZM14,1.5v-.5h1v1h-1v-.5ZM11,6.5v-.5h1v1h-1v-.5ZM14,12.5v.5h-1v-1h1v.5Z"/><rect class="cls-1" width="16" height="16"/></svg>

<svg xmlns="http://www.w3.org/2000/svg" viewBox="0 0 16 16"><path d="M14.5 3A1.5 1.5 0 1 0 13 1.5c0 .362.134.69.347.95L11.8 5.03a1.496 1.496 0 0 0-1.707.97H7.908a1.496 1.496 0 0 0-2.878.8L2.45 8.347A1.487 1.487 0 0 0 2 8.092V2.908A1.496 1.496 0 0 0 1.5 0 1.496 1.496 0 0 0 1 2.908v5.184C.419 8.298.009 8.848.009 9.5s.41 1.202.991 1.408V15h1v-4.092c.581-.206.991-.756.991-1.408 0-.102-.002-.202-.021-.3l2.58-1.548c.134.11.284.197.45.256v5.184a1.488 1.488 0 0 0-.991 1.408c0 .828.663 1.5 1.491 1.5s1.491-.672 1.491-1.5c0-.652-.41-1.202-.991-1.408V7.908c.424-.15.757-.484.908-.908h2.184c.203.573.74.985 1.38.997l1.108 3.326c-.048.038-.098.073-.14.116a1.488 1.488 0 0 0-.431 1.061A1.488 1.488 0 0 0 13.5 14a1.488 1.488 0 0 0 1.491-1.5c0-.414-.159-.79-.43-1.06a1.494 1.494 0 0 0-1.033-.437L12.42 7.677c.35-.275.58-.697.58-1.177 0-.362-.134-.69-.347-.95L14.2 2.97c.097.02.197.03.299.03zM1 1.5V1h1v1H1v-.5zm1 8v.5H1V9h1v.5zm5 5v.5H6v-1h1v.5zm0-8V7H6V6h1v.5zm7-5V1h1v1h-1v-.5zm-3 5V6h1v1h-1v-.5zm3 6v.5h-1v-1h1v.5z" stroke-width="0"/><path stroke-width="0" fill="none" d="M0 0h16v16H0z"/></svg>
